X:356
T:Touch the String GHW070
T: Touch the Thing
M:2/4
L:1/8
S:George H.Watson, Swanton Abbott, Norfolk1850-1880
O:England
A:Norfolk
Z:Taz Tarry
K:D
d|AFFD|CEEG|FDFA|d2cB|AFFD|CEEG|FDAF|D2D F|!
BcdB|ceAA|BcdB|{cd}e2 AA|BcdB|cdec|{de}fdc>B|d2c>B|!
|AFFD|CEEG|FDFA|d2cB|AFFD|CEEG|FDAF|D2D|!
|AFFD|CEEG|FDFA|d2cB|AFFD|CEEG|FDAF|D2D|!

